iUTHVQx/TWmvsMq2IKIqUkexoqZvsi63tUz5XpmDbNY61LzFmYe+jFanbuU9LYW7nkHyA8xHcNUgYs4j+3ccgZHNFNlsT0oGzHiaXTMLWhcebK/HvcOYhjozWzvj2kZxrk7tT7TS8QKI0MZBBjJksbKJV93hkC1g88FduTxPHS5epNsYiI5CRbBZJUuha+M4Rji6vOay5VUIYTEvtiRIWRUA20BoWHPwynd9s8/OPXP+PhpGbv/7dXhRia2oUyM/ACnqZZCUAIyVGMB5g7/7huJUgvoD5rgG5h6X0lZKa5ht/sXfheoaOCskRcbqdZZ/DNdDY9I9lSrbZc7VATP0t3RLAR7Ftty27R/MVWgBFv7YivHdWdLCtGSxZA4V/OZhzrR1wSOpHoFIUXjruxQwED/JUe2GWrS+ykYmAIXs9vA0f1/0jvJpuqXu0zD5owIelxhKKLNoo/aOIB/65gPjjW7l/udAV8D1vUqqAzmvH70VunfopEX3WifpiNGDJH5qcvt5VAQ1dv2VCxr875bB7x90ng3zoH3G7/+CLea3+pS6qs9eyBuSNT8WQpdr7cVKC/tJ2UQdZWvov8KXg9Xp/2VmOWvar91xuLjhElM8L+g=